src/icons/svg/terminal-set.svg

<?xml version="1.0" encoding="UTF-8"?>
<svg width="40px" height="36px" viewBox="0 0 40 36" version="1.1" xmlns="http://www.w3.org/2000/svg"
>
    <path d="M0,0 L0,27.7227723 L40,27.7227723 L40,0 L0,0 Z M36.039604,23.7623762 L3.96039602,23.7623762 L3.96039602,3.96039602 L36.039604,3.96039602 L36.039604,23.7623762 Z M7.52475247,31.2871287 L32.6732673,31.2871287 L32.6732673,35.2475247 L7.52475247,35.2475247 L7.52475247,31.2871287 Z"
          id="形状"></path>
    <path d="M10.8910891,21.5841584 L18.6138614,13.8613861 L10.8910891,6.13861383 L8.11881186,8.91089107 L13.0693069,13.8613861 L8.11881186,18.8118812 L10.8910891,21.5841584 Z M20.990099,15.6435643 L31.8811881,15.6435643 L31.8811881,19.6039604 L20.990099,19.6039604 L20.990099,15.6435643 Z"
          id="形状"></path>
</svg>

<svg width="40" height="36" xmlns="http://www.w3.org/2000/svg"><path d="M0 0v27.723h40V0H0zm36.04 23.762H3.96V3.96h32.08v19.802zM7.525 31.287h25.148v3.96H7.525v-3.96z"/><path d="M10.891 21.584l7.723-7.723L10.89 6.14 8.12 8.91l4.95 4.95-4.95 4.95 2.772 2.773zm10.1-5.94h10.89v3.96h-10.89v-3.96z"/></svg>
